;Generated with Cura_SteamEngine 15.01
; Default start code
G28 ; Home extruder
G1 Z15 F100
M107 ; Turn off fan
G90 ; Absolute positioning
M82 ; Extruder in absolute mode
M190 S80
; Activate all used extruder
M104 T0 S215
G92 E0 ; Reset extruder position
; Wait for all used extruders to reach temperature
M109 T0 S215
;Layer count: 50
;LAYER:0
M107
G0 F9000 X5.417 Y5.468 Z0.300
;TYPE:SKIRT
G1 F1800 X44.613 Y5.468 E1.95061
G1 X44.613 Y64.664 E4.89652
G1 X5.417 Y64.664 E6.84713
G1 X5.417 Y5.468 E9.79305
G0 F9000 X5.816 Y5.867
G1 F1800 X44.214 Y5.867 E11.70394
G1 X44.214 Y64.265 E14.61015
G1 X5.816 Y64.265 E16.52104
G1 X5.816 Y5.867 E19.42725
G1 F2400 E15.42725
G0 F9000 X12.180 Y17.431
;TYPE:WALL-INNER
G1 F2400 E19.42725
G1 F1800 X12.831 Y17.779 E19.46398
G1 X13.443 Y17.966 E19.49583
G1 X13.443 Y52.143 E21.19666
G1 X12.831 Y52.328 E21.22848
G1 X12.179 Y52.678 E21.26531
G1 X12.012 Y52.815 E21.27606
G1 X12.012 Y17.293 E23.04383
G1 X12.180 Y17.431 E23.05465
G0 F9000 X12.474 Y17.023
G0 X14.276 Y17.665
G0 X16.149 Y17.097
G0 X16.602 Y16.593
G0 X16.944 Y16.962
G1 F1800 X17.412 Y16.390 E23.09143
G1 X17.762 Y15.739 E23.12821
G1 X17.976 Y15.030 E23.16507
G1 X18.048 Y14.294 E23.20187
G1 X17.976 Y13.558 E23.23867
G1 X17.762 Y12.849 E23.27553
G1 X17.412 Y12.198 E23.31231
G1 X17.302 Y12.063 E23.32098
G1 X32.670 Y12.063 E24.08577
G1 X32.560 Y12.198 E24.09444
G1 X32.210 Y12.849 E24.13122
G1 X31.996 Y13.558 E24.16808
G1 X31.924 Y14.294 E24.20488
G1 X31.996 Y15.030 E24.24168
G1 X32.210 Y15.739 E24.27854
G1 X32.560 Y16.390 E24.31532
G1 X33.028 Y16.962 E24.35210
G1 X33.525 Y17.369 E24.38407
G1 X16.447 Y17.369 E25.23396
G1 X16.944 Y16.962 E25.26593
G0 F9000 X16.602 Y16.593
G0 X35.696 Y17.666
G0 X36.442 Y17.471
G0 X36.588 Y17.948
G1 F1800 X37.141 Y17.779 E25.29471
G1 X37.792 Y17.431 E25.33144
G1 X38.018 Y17.246 E25.34598
G1 X38.018 Y52.817 E27.11619
G1 X37.792 Y52.632 E27.13072
G1 X37.141 Y52.284 E27.16746
G1 X36.588 Y52.115 E27.19623
G1 X36.588 Y17.948 E28.89657
G1 F2400 E24.89657
G0 F9000 X32.896 Y53.263
G1 F2400 E28.89657
G1 F1800 X32.560 Y53.672 E28.92291
G1 X32.210 Y54.324 E28.95974
G1 X31.996 Y55.032 E28.99655
G1 X31.924 Y55.769 E29.03340
G1 X31.996 Y56.505 E29.07020
G1 X32.210 Y57.213 E29.10701
G1 X32.560 Y57.865 E29.14384
G1 X32.728 Y58.069 E29.15699
G1 X17.282 Y58.069 E29.92566
G1 X17.412 Y57.911 E29.93585
G1 X17.762 Y57.259 E29.97267
G1 X17.976 Y56.550 E30.00953
G1 X18.048 Y55.814 E30.04633
G1 X17.976 Y55.078 E30.08313
G1 X17.762 Y54.369 E30.11999
G1 X17.411 Y53.718 E30.15680
G1 X17.038 Y53.263 E30.18608
G1 X32.896 Y53.263 E30.97526
G0 F9000 X33.312 Y53.384
G1 F1800 X32.894 Y53.895 E31.00811
G1 X32.581 Y54.478 E31.04104
G1 X32.390 Y55.110 E31.07390
G1 X32.325 Y55.769 E31.10685
G1 X32.390 Y56.427 E31.13976
G1 X32.581 Y57.059 E31.17261
G1 X32.894 Y57.642 E31.20554
G1 X33.312 Y58.153 E31.23840
G1 X33.697 Y58.468 E31.26315
G1 X16.332 Y58.468 E32.12733
G1 X16.660 Y58.199 E32.14844
G1 X17.078 Y57.688 E32.18130
G1 X17.391 Y57.105 E32.21423
G1 X17.582 Y56.472 E32.24713
G1 X17.647 Y55.814 E32.28004
G1 X17.582 Y55.156 E32.31294
G1 X17.391 Y54.523 E32.34585
G1 X17.078 Y53.941 E32.37873
G1 X16.660 Y53.430 E32.41159
G1 X16.149 Y53.012 E32.44444
G1 X15.873 Y52.864 E32.46003
G1 X34.012 Y52.864 E33.36272
G1 X33.823 Y52.965 E33.37339
G1 X33.312 Y53.384 E33.40627
G1 F2400 E29.40627
G0 F9000 X36.355 Y52.462
G1 F2400 E33.40627
G1 F1800 X36.189 Y52.446 E33.41457
G1 X36.189 Y17.768 E35.14034
G1 X13.842 Y17.768 E36.25245
G1 X13.842 Y52.486 E37.98021
G1 X13.617 Y52.508 E37.99146
G1 X12.985 Y52.699 E38.02431
G1 X12.402 Y53.012 E38.05724
G1 X11.891 Y53.430 E38.09010
G1 X11.613 Y53.769 E38.11192
G1 X11.613 Y16.339 E39.97464
G1 X11.891 Y16.679 E39.99649
G1 X12.402 Y17.098 E40.02938
G1 X12.985 Y17.409 E40.06226
G1 X13.617 Y17.602 E40.09515
G1 X14.276 Y17.665 E40.12809
G1 X14.934 Y17.602 E40.16099
G1 X15.566 Y17.409 E40.19388
G1 X16.149 Y17.098 E40.22676
G1 X16.660 Y16.679 E40.25964
G1 X17.078 Y16.167 E40.29254
G1 X17.391 Y15.585 E40.32542
G1 X17.582 Y14.952 E40.35833
G1 X17.647 Y14.294 E40.39123
G1 X17.582 Y13.636 E40.42414
G1 X17.391 Y13.003 E40.45704
G1 X17.078 Y12.421 E40.48993
G1 X16.660 Y11.909 E40.52282
G1 X16.360 Y11.664 E40.54210
G1 X33.611 Y11.664 E41.40060
G1 X33.312 Y11.909 E41.41984
G1 X32.894 Y12.421 E41.45273
G1 X32.581 Y13.003 E41.48562
G1 X32.390 Y13.636 E41.51852
G1 X32.325 Y14.294 E41.55143
G1 X32.390 Y14.952 E41.58433
G1 X32.581 Y15.585 E41.61724
G1 X32.894 Y16.167 E41.65012
G1 X33.312 Y16.679 E41.68302
G1 X33.823 Y17.098 E41.71590
G1 X34.406 Y17.409 E41.74879
G1 X35.038 Y17.601 E41.78166
G1 X35.696 Y17.666 E41.81456
G1 X36.355 Y17.601 E41.84752
G1 X36.987 Y17.409 E41.88039
G1 X37.570 Y17.098 E41.91327
G1 X38.081 Y16.679 E41.94616
G1 X38.417 Y16.268 E41.97258
G1 X38.417 Y53.794 E43.84008
G1 X38.081 Y53.384 E43.86646
G1 X37.570 Y52.965 E43.89934
G1 X36.987 Y52.654 E43.93222
G1 X36.355 Y52.462 E43.96510
G1 F2400 E39.96510
G0 F9000 X38.081 Y58.153
G1 F2400 E43.96510
G1 F1800 X38.417 Y57.743 E43.99148
G1 X38.417 Y58.468 E44.02756
G1 X37.696 Y58.468 E44.06344
G1 X38.081 Y58.153 E44.08819
G1 F2400 E40.08819
G0 F9000 X12.221 Y58.468
G1 F2400 E44.08819
G1 F1800 X11.613 Y58.468 E44.11845
G1 X11.613 Y57.858 E44.14881
G1 X11.892 Y58.198 E44.17069
G1 X12.221 Y58.468 E44.19188
G1 F2400 E40.19188
G0 F9000 X11.613 Y12.249
G1 F2400 E44.19188
G1 F1800 X11.613 Y11.664 E44.22099
G1 X12.191 Y11.664 E44.24975
G1 X11.891 Y11.909 E44.26903
G1 X11.613 Y12.249 E44.29088
G1 F2400 E40.29088
G0 F9000 X37.781 Y11.664
G1 F2400 E44.29088
G1 F1800 X38.417 Y11.664 E44.32254
G1 X38.417 Y12.320 E44.35518
G1 X38.081 Y11.909 E44.38160
G1 X37.781 Y11.664 E44.40088
G0 F9000 X37.347 Y11.825
;TYPE:WALL-OUTER
G1 F1800 X36.834 Y11.549 E44.42987
G1 X36.277 Y11.381 E44.45882
G1 X35.696 Y11.323 E44.48788
G1 X35.116 Y11.381 E44.51688
G1 X34.560 Y11.549 E44.54579
G1 X34.046 Y11.824 E44.57480
G1 X33.596 Y12.193 E44.60376
G1 X33.227 Y12.644 E44.63276
G1 X32.951 Y13.156 E44.66171
G1 X32.783 Y13.714 E44.69071
G1 X32.726 Y14.294 E44.71971
G1 X32.783 Y14.874 E44.74871
G1 X32.951 Y15.432 E44.77771
G1 X33.227 Y15.944 E44.80666
G1 X33.596 Y16.395 E44.83566
G1 X34.046 Y16.764 E44.86462
G1 X34.559 Y17.039 E44.89359
G1 X35.116 Y17.208 E44.92255
G1 X35.696 Y17.265 E44.95156
G1 X36.277 Y17.208 E44.98061
G1 X36.834 Y17.039 E45.00958
G1 X37.347 Y16.764 E45.03854
G1 X37.797 Y16.395 E45.06750
G1 X38.166 Y15.944 E45.09650
G1 X38.441 Y15.432 E45.12542
G1 X38.610 Y14.874 E45.15444
G1 X38.667 Y14.294 E45.18344
G1 X38.610 Y13.714 E45.21245
G1 X38.441 Y13.156 E45.24146
G1 X38.166 Y12.644 E45.27038
G1 X37.797 Y12.193 E45.29938
G1 X37.347 Y11.825 E45.32831
G0 F9000 X37.490 Y11.562
G0 X38.516 Y11.475
G0 X38.816 Y11.265
G1 F1800 X38.816 Y58.867 E47.69725
G1 X11.214 Y58.867 E49.07087
G1 X11.214 Y11.265 E51.43981
G1 X38.816 Y11.265 E52.81344
G1 F2400 E48.81344
G0 F9000 X35.790 Y18.167
G1 F2400 E52.81344
G1 F1800 X14.241 Y18.167 E53.88583
G1 X14.241 Y20.965 E54.02508
G1 X35.790 Y20.965 E55.09747
G1 X35.790 Y18.167 E55.23672
G0 F9000 X35.790 Y17.867
G0 X36.131 Y17.826
G0 X36.131 Y21.306
G0 X35.790 Y21.367
G0 X35.790 Y21.667
G1 F1800 X14.241 Y21.667 E56.30911
G1 X14.241 Y24.465 E56.44836
G1 X35.790 Y24.465 E57.52075
G1 X35.790 Y21.667 E57.66000
G0 F9000 X35.790 Y21.367
G0 X36.131 Y21.326
G0 X36.131 Y24.806
G0 X35.790 Y24.867
G0 X35.790 Y25.167
G1 F1800 X14.241 Y25.167 E58.73239
G1 X14.241 Y27.965 E58.87164
G1 X35.790 Y27.965 E59.94403
G1 X35.790 Y25.167 E60.08328
G0 F9000 X35.790 Y24.867
G0 X36.131 Y24.826
G0 X36.131 Y28.306
G0 X35.790 Y28.367
G0 X35.790 Y28.667
G1 F1800 X14.241 Y28.667 E61.15567
G1 X14.241 Y31.465 E61.29492
G1 X35.790 Y31.465 E62.36731
G1 X35.790 Y28.667 E62.50656
G0 F9000 X35.790 Y28.367
G0 X36.131 Y28.326
G0 X36.131 Y31.806
G0 X35.790 Y31.867
G0 X35.790 Y32.167
G1 F1800 X14.241 Y32.167 E63.57895
G1 X14.241 Y34.965 E63.71820
G1 X35.790 Y34.965 E64.79059
G1 X35.790 Y32.167 E64.92984
G0 F9000 X35.790 Y31.867
G0 X36.131 Y31.826
G0 X36.131 Y35.306
G0 X35.790 Y35.367
G0 X35.790 Y35.667
G1 F1800 X14.241 Y35.667 E66.00223
G1 X14.241 Y38.465 E66.14148
G1 X35.790 Y38.465 E67.21387
G1 X35.790 Y35.667 E67.35312
G0 F9000 X35.790 Y35.367
G0 X36.131 Y35.326
G0 X36.131 Y38.806
G0 X35.790 Y38.867
G0 X35.790 Y39.167
G1 F1800 X14.241 Y39.167 E68.42551
G1 X14.241 Y41.965 E68.56476
G1 X35.790 Y41.965 E69.63715
G1 X35.790 Y39.167 E69.77640
G0 F9000 X35.790 Y38.867
G0 X36.131 Y38.826
G0 X36.131 Y42.306
G0 X35.790 Y42.367
G0 X35.790 Y42.667
G1 F1800 X14.241 Y42.667 E70.84880
G1 X14.241 Y45.465 E70.98804
G1 X35.790 Y45.465 E72.06044
G1 X35.790 Y42.667 E72.19968
G0 F9000 X35.790 Y42.367
G0 X36.131 Y42.326
G0 X36.131 Y45.806
G0 X35.790 Y45.867
G0 X35.790 Y46.167
G1 F1800 X14.241 Y46.167 E73.27208
G1 X14.241 Y48.965 E73.41132
G1 X35.790 Y48.965 E74.48372
G1 X35.790 Y46.167 E74.62296
G0 F9000 X35.790 Y45.867
G0 X36.131 Y45.826
G0 X36.090 Y49.667
G0 X35.790 Y49.667
G1 F1800 X14.241 Y49.667 E75.69536
G1 X14.241 Y52.465 E75.83460
G1 X35.790 Y52.465 E76.90700
G1 X35.790 Y49.667 E77.04624
G0 F9000 X36.090 Y49.667
G0 X36.090 Y52.616
G0 X35.696 Y52.798
G1 F1800 X35.116 Y52.855 E77.07524
G1 X34.559 Y53.024 E77.10421
G1 X34.046 Y53.299 E77.13318
G1 X33.596 Y53.668 E77.16214
G1 X33.227 Y54.118 E77.19110
G1 X32.951 Y54.631 E77.22009
G1 X32.783 Y55.188 E77.24904
G1 X32.726 Y55.769 E77.27809
G1 X32.783 Y56.349 E77.30710
G1 X32.951 Y56.906 E77.33605
G1 X33.227 Y57.419 E77.36504
G1 X33.596 Y57.869 E77.39400
G1 X34.046 Y58.238 E77.42296
G1 X34.559 Y58.514 E77.45195
G1 X35.116 Y58.682 E77.48090
G1 X35.696 Y58.739 E77.50991
G1 X36.277 Y58.682 E77.53896
G1 X36.834 Y58.514 E77.56791
G1 X37.347 Y58.238 E77.59690
G1 X37.797 Y57.869 E77.62586
G1 X38.166 Y57.419 E77.65482
G1 X38.441 Y56.906 E77.68379
G1 X38.610 Y56.349 E77.71276
G1 X38.667 Y55.769 E77.74176
G1 X38.610 Y55.188 E77.77081
G1 X38.441 Y54.631 E77.79978
G1 X38.166 Y54.118 E77.82875
G1 X37.797 Y53.668 E77.85771
G1 X37.347 Y53.299 E77.88667
G1 X36.834 Y53.024 E77.91563
G1 X36.277 Y52.855 E77.94460
G1 X35.696 Y52.798 E77.97365
G1 F2400 E73.97365
G0 F9000 X17.189 Y55.234
G1 F2400 E77.97365
G1 F1800 X17.021 Y54.676 E78.00265
G1 X16.745 Y54.164 E78.03160
G1 X16.376 Y53.714 E78.06056
G1 X15.926 Y53.345 E78.08952
G1 X15.413 Y53.069 E78.11851
G1 X14.856 Y52.901 E78.14747
G1 X14.276 Y52.844 E78.17647
G1 X13.695 Y52.901 E78.20552
G1 X13.138 Y53.069 E78.23447
G1 X12.625 Y53.345 E78.26346
G1 X12.175 Y53.714 E78.29242
G1 X11.806 Y54.164 E78.32139
G1 X11.531 Y54.676 E78.35031
G1 X11.362 Y55.234 E78.37932
G1 X11.305 Y55.814 E78.40833
G1 X11.362 Y56.394 E78.43733
G1 X11.531 Y56.952 E78.46634
G1 X11.806 Y57.465 E78.49531
G1 X12.176 Y57.914 E78.52426
G1 X12.625 Y58.284 E78.55322
G1 X13.138 Y58.559 E78.58218
G1 X13.695 Y58.728 E78.61115
G1 X14.276 Y58.785 E78.64020
G1 X14.856 Y58.728 E78.66921
G1 X15.413 Y58.559 E78.69817
G1 X15.926 Y58.284 E78.72714
G1 X16.376 Y57.915 E78.75610
G1 X16.745 Y57.465 E78.78506
G1 X17.021 Y56.952 E78.81405
G1 X17.189 Y56.394 E78.84305
G1 X17.246 Y55.814 E78.87206
G1 X17.189 Y55.234 E78.90106
G1 F2400 E74.90106
G0 F9000 X14.276 Y17.264
G1 F2400 E78.90106
G1 F1800 X14.856 Y17.208 E78.93006
G1 X15.413 Y17.039 E78.95902
G1 X15.926 Y16.764 E78.98799
G1 X16.376 Y16.395 E79.01695
G1 X16.745 Y15.944 E79.04595
G1 X17.021 Y15.432 E79.07490
G1 X17.189 Y14.874 E79.10390
G1 X17.246 Y14.294 E79.13290
G1 X17.189 Y13.714 E79.16190
G1 X17.021 Y13.156 E79.19090
G1 X16.745 Y12.644 E79.21985
G1 X16.376 Y12.193 E79.24885
G1 X15.926 Y11.825 E79.27778
G1 X15.413 Y11.549 E79.30677
G1 X14.856 Y11.381 E79.33572
G1 X14.276 Y11.323 E79.36473
G1 X13.695 Y11.381 E79.39379
G1 X13.138 Y11.549 E79.42274
G1 X12.625 Y11.825 E79.45173
G1 X12.175 Y12.193 E79.48066
G1 X11.806 Y12.644 E79.50966
G1 X11.532 Y13.157 E79.53860
G1 X11.362 Y13.714 E79.56758
G1 X11.305 Y14.294 E79.59659
G1 X11.362 Y14.874 E79.62559
G1 X11.531 Y15.432 E79.65460
G1 X11.806 Y15.944 E79.68353
G1 X12.175 Y16.395 E79.71253
G1 X12.625 Y16.764 E79.74149
G1 X13.138 Y17.039 E79.77045
G1 X13.695 Y17.208 E79.79942
G1 X14.276 Y17.264 E79.82847
G0 F9000 X13.343 Y18.140
;TYPE:SKIN
G1 F1800 X13.198 Y17.995 E79.83867
G0 F9000 X13.343 Y18.704
G1 F1800 X12.185 Y17.546 E79.92017
G0 F9000 X12.112 Y18.037
G1 F1800 X13.343 Y19.268 E80.00681
G0 F9000 X13.343 Y19.832
G1 F1800 X12.112 Y18.601 E80.09345
G0 F9000 X12.112 Y19.166
G1 F1800 X13.343 Y20.397 E80.18008
G0 F9000 X13.343 Y20.961
G1 F1800 X12.112 Y19.730 E80.26672
G0 F9000 X11.514 Y19.730
G0 X13.900 Y17.826
G0 X14.569 Y17.862
G0 X16.494 Y16.686
G0 X16.902 Y17.185
G1 F1800 X17.066 Y17.067 E80.27254
G1 X17.549 Y17.268 E80.29857
G0 F9000 X18.113 Y17.268
G1 F1800 X17.402 Y16.556 E80.34865
G0 F9000 X17.621 Y16.211
G1 F1800 X18.678 Y17.268 E80.42304
G0 F9000 X19.242 Y17.268
G1 F1800 X17.818 Y15.844 E80.52326
G0 F9000 X17.960 Y15.421
G1 F1800 X19.806 Y17.268 E80.65321
G0 F9000 X20.371 Y17.268
G1 F1800 X18.080 Y14.977 E80.81445
G0 F9000 X18.130 Y14.463
G1 F1800 X20.935 Y17.268 E81.01187
G0 F9000 X21.499 Y17.268
G1 F1800 X18.106 Y13.874 E81.25070
G0 F9000 X17.961 Y13.165
G1 F1800 X22.063 Y17.268 E81.53943
G0 F9000 X22.628 Y17.268
G1 F1800 X17.522 Y12.162 E81.89878
G0 F9000 X18.087 Y12.162
G1 F1800 X23.192 Y17.268 E82.25810
G0 F9000 X23.756 Y17.268
G1 F1800 X18.651 Y12.162 E82.61742
G0 F9000 X19.215 Y12.162
G1 F1800 X24.320 Y17.268 E82.97674
G0 F9000 X24.885 Y17.268
G1 F1800 X19.779 Y12.162 E83.33610
G0 F9000 X20.344 Y12.162
G1 F1800 X25.449 Y17.268 E83.69542
G0 F9000 X26.013 Y17.268
G1 F1800 X20.908 Y12.162 E84.05474
G0 F9000 X21.472 Y12.162
G1 F1800 X26.578 Y17.268 E84.41409
G0 F9000 X27.142 Y17.268
G1 F1800 X22.036 Y12.162 E84.77345
G0 F9000 X22.601 Y12.162
G1 F1800 X27.706 Y17.268 E85.13277
G0 F9000 X28.270 Y17.268
G1 F1800 X23.165 Y12.162 E85.49209
G0 F9000 X23.729 Y12.162
G1 F1800 X28.835 Y17.268 E85.85144
G0 F9000 X29.399 Y17.268
G1 F1800 X24.294 Y12.162 E86.21076
G0 F9000 X24.858 Y12.162
G1 F1800 X29.963 Y17.268 E86.57008
G0 F9000 X30.527 Y17.268
G1 F1800 X25.422 Y12.162 E86.92940
G0 F9000 X25.986 Y12.162
G1 F1800 X31.092 Y17.268 E87.28876
G0 F9000 X31.656 Y17.268
G1 F1800 X26.551 Y12.162 E87.64808
G0 F9000 X27.115 Y12.162
G1 F1800 X32.220 Y17.268 E88.00740
G0 F9000 X32.785 Y17.268
G1 F1800 X27.679 Y12.162 E88.36675
G0 F9000 X28.243 Y12.162
G1 F1800 X32.417 Y16.336 E88.66052
G0 F9000 X31.984 Y15.339
G1 F1800 X28.808 Y12.162 E88.88408
G0 F9000 X29.372 Y12.162
G1 F1800 X31.857 Y14.648 E89.05900
G0 F9000 X31.845 Y14.071
G1 F1800 X29.936 Y12.162 E89.19336
G0 F9000 X30.501 Y12.162
G1 F1800 X31.896 Y13.558 E89.29157
G0 F9000 X32.023 Y13.121
G1 F1800 X31.065 Y12.162 E89.35903
G0 F9000 X31.629 Y12.162
G1 F1800 X32.271 Y12.522 E89.39722
G1 X32.193 Y12.162 E89.41555
G0 F9000 X32.193 Y11.565
G0 X32.582 Y15.585
G0 X33.823 Y17.097
G0 X35.696 Y17.666
G0 X36.695 Y17.394
G0 X36.869 Y17.966
G1 F1800 X37.917 Y19.015 E89.48934
G0 F9000 X37.917 Y19.579
G1 F1800 X36.686 Y18.348 E89.57598
G0 F9000 X36.686 Y18.912
G1 F1800 X37.917 Y20.144 E89.66265
G0 F9000 X37.917 Y20.708
G1 F1800 X36.686 Y19.477 E89.74929
G0 F9000 X36.090 Y19.477
G0 X38.516 Y18.451
G0 X37.917 Y18.451
G1 F1800 X37.283 Y17.816 E89.79394
G0 F9000 X37.651 Y17.620
G1 F1800 X37.917 Y17.886 E89.81266
G0 F9000 X38.516 Y17.886
G0 X36.090 Y20.041
G0 X36.686 Y20.041
G1 F1800 X37.917 Y21.272 E89.89930
G0 F9000 X37.917 Y21.836
G1 F1800 X36.686 Y20.605 E89.98594
G0 F9000 X36.686 Y21.170
G1 F1800 X37.917 Y22.401 E90.07257
G0 F9000 X37.917 Y22.965
G1 F1800 X36.686 Y21.734 E90.15921
G0 F9000 X36.686 Y22.298
G1 F1800 X37.917 Y23.529 E90.24585
G0 F9000 X37.917 Y24.093
G1 F1800 X36.686 Y22.862 E90.33248
G0 F9000 X36.686 Y23.427
G1 F1800 X37.917 Y24.658 E90.41912
G0 F9000 X37.917 Y25.222
G1 F1800 X36.686 Y23.991 E90.50576
G0 F9000 X36.686 Y24.555
G1 F1800 X37.917 Y25.786 E90.59239
G0 F9000 X37.917 Y26.351
G1 F1800 X36.686 Y25.119 E90.67906
G0 F9000 X36.686 Y25.684
G1 F1800 X37.917 Y26.915 E90.76570
G0 F9000 X37.917 Y27.479
G1 F1800 X36.686 Y26.248 E90.85234
G0 F9000 X36.686 Y26.812
G1 F1800 X37.917 Y28.043 E90.93897
G0 F9000 X37.917 Y28.608
G1 F1800 X36.686 Y27.377 E91.02561
G0 F9000 X36.686 Y27.941
G1 F1800 X37.917 Y29.172 E91.11225
G0 F9000 X37.917 Y29.736
